frontend/public/svg/arrows/arrow-circle-right.svg

<svg width="155" height="150" viewBox="0 0 155 150" fill="none" xmlns="http://www.w3.org/2000/svg">
<path d="M3.49703 54.1851C-3.29738 80.8895 2.65234 104.447 21.1932 124.216C21.6756 124.727 22.1679 125.238 22.6595 125.73C32.6194 135.689 45.0249 141.838 54.8542 146.118C59.0731 147.96 80.7204 150.198 86.5776 149.325C121.385 144.127 144.291 124.495 152.269 91.6509C153.792 85.2172 154.551 78.6261 154.529 72.0146C154.566 56.4397 148.009 38.3326 134.485 24.7714C133.092 23.6202 131.705 22.4276 130.363 21.2718C127.454 18.7705 124.446 16.1805 121.3 13.9719C97.2641 -2.94517 72.2904 -3.03967 47.0759 5.93116C24.2465 14.0448 9.58587 30.2839 3.49703 54.1851ZM47.1737 13.9247C69.2969 4.73069 91.4949 3.10822 113.146 16.8782C117.104 19.3985 127.658 27.9283 129.319 29.2095L129.426 29.2882L129.514 29.3861C137.961 38.3431 147.633 54.7207 147.419 71.5564C147.349 78.7554 146.374 85.917 144.518 92.873C139.019 112.862 125.871 127.43 104.323 137.394C82.4171 147.883 51.0021 137.279 42.6437 131.761C33.4052 125.445 25.3215 117.587 18.7457 108.531C8.43337 93.931 6.11973 72.944 11.6612 53.7586C14.2543 44.9 18.7864 36.7295 24.9287 29.8397C31.0711 22.95 38.6697 17.5135 47.1737 13.9247Z" fill="black"/>
<path d="M110.469 61.5199C108.519 59.2634 106.577 56.9983 104.644 54.7248C102.542 52.2622 100.433 49.8047 98.3194 47.3522C97.5111 46.3656 96.5632 45.5021 95.5056 44.7892C94.8723 44.3921 93.5051 44.3408 92.9735 44.8324C92.6822 45.1819 92.4859 45.6007 92.4038 46.0482C92.3217 46.4957 92.3566 46.9568 92.5049 47.387C93.0768 48.4356 93.7551 49.4227 94.529 50.3326C94.7009 50.5486 94.8723 50.7644 95.0403 50.981C97.46 54.1012 99.8823 57.2198 102.307 60.3365C105.166 64.0146 108.023 67.694 110.878 71.3747C111.112 71.701 111.319 72.0464 111.495 72.4071C111.538 72.4885 111.583 72.5725 111.627 72.6605C110.059 72.583 108.518 72.5043 106.996 72.4262C103.242 72.2345 99.695 72.0533 96.1009 71.9155C88.4526 71.6234 77.2805 71.3394 66.4758 71.0624C57.1926 70.8274 48.4232 70.6029 41.9825 70.3817C40.7193 70.3487 39.4559 70.4382 38.21 70.6488C36.3066 70.9514 35.3411 71.9307 35.3424 73.561C35.3424 75.3804 36.4207 76.4824 38.376 76.6635C38.915 76.7134 39.4544 76.7653 39.9939 76.8191C42.2117 77.037 44.5055 77.2609 46.7706 77.2904C55.807 77.4079 68.5984 77.4997 80.9657 77.5876C90.5483 77.6533 99.5986 77.7189 106.533 77.7943C107.038 77.8129 107.541 77.8636 108.04 77.9459L108.379 77.9938C108.227 78.1573 108.085 78.3129 107.949 78.4606C107.455 78.9968 107.045 79.4412 106.619 79.8678C100.626 85.9713 95.6168 92.9679 91.7704 100.608L91.6483 100.842C91.2676 101.504 90.9675 102.209 90.7544 102.942C90.6831 103.377 90.7129 103.823 90.8417 104.244C90.8797 104.413 90.9171 104.583 90.9401 104.749L90.9874 105.094L91.3287 105.029C91.5286 104.994 91.7301 104.969 91.9325 104.955C92.4482 104.967 92.9549 104.817 93.3817 104.528C93.8555 104.081 94.281 103.586 94.6511 103.05C94.9378 102.647 95.2507 102.262 95.5877 101.9C98.3233 99.1019 101.065 96.3097 103.814 93.5229C107.398 89.8793 110.976 86.2302 114.547 82.5752C116.13 81.0542 117.556 79.3787 118.806 77.5739C120.588 74.8061 120.315 72.5037 117.9 69.875C115.594 67.3678 113.162 64.6335 110.469 61.5199Z" fill="black"/>
</svg>

<svg xmlns="http://www.w3.org/2000/svg" width="155" height="150" fill="none" viewBox="0 0 155 150"><path fill="#000" d="M3.497 54.185c-6.794 26.704-.845 50.262 17.696 70.031a75 75 0 0 0 1.467 1.514c9.96 9.959 22.365 16.108 32.194 20.388 4.22 1.842 25.866 4.08 31.724 3.207 34.807-5.198 57.713-24.83 65.691-57.674a84 84 0 0 0 2.26-19.636c.037-15.575-6.52-33.682-20.044-47.244a267 267 0 0 1-4.122-3.5c-2.909-2.5-5.917-5.09-9.063-7.3-24.036-16.916-49.01-17.01-74.224-8.04-22.83 8.114-37.49 24.353-43.579 48.254m43.677-40.26c22.123-9.194 44.32-10.817 65.972 2.953 3.958 2.52 14.512 11.05 16.173 12.331l.107.08.088.097c8.447 8.957 18.119 25.335 17.905 42.17a86 86 0 0 1-2.901 21.317c-5.499 19.989-18.647 34.557-40.195 44.521-21.906 10.489-53.32-.115-61.68-5.633a97.6 97.6 0 0 1-23.897-23.23C8.433 93.931 6.12 72.944 11.66 53.759a62.2 62.2 0 0 1 35.513-39.834"/><path fill="#000" d="M110.469 61.52a1114 1114 0 0 1-5.825-6.795q-3.154-3.694-6.325-7.373a13.1 13.1 0 0 0-2.813-2.563c-.634-.397-2-.448-2.532.043a2.64 2.64 0 0 0-.47 2.555 17.4 17.4 0 0 0 2.025 2.946q.258.323.511.648 3.63 4.68 7.267 9.356 4.288 5.517 8.571 11.038.352.49.617 1.032.065.122.132.254-2.35-.117-4.631-.235a836 836 0 0 0-10.895-.51c-7.648-.293-18.82-.577-29.625-.854-9.283-.235-18.053-.46-24.493-.68a19.6 19.6 0 0 0-3.773.267c-1.903.302-2.869 1.282-2.868 2.912 0 1.82 1.079 2.921 3.034 3.102q.808.075 1.618.156c2.218.218 4.511.442 6.777.471 9.036.118 21.827.21 34.195.298 9.582.065 18.633.13 25.567.206q.758.029 1.507.152l.339.048q-.227.245-.43.467c-.494.536-.904.98-1.33 1.407a82.7 82.7 0 0 0-14.849 20.74l-.122.234a9.6 9.6 0 0 0-.894 2.1c-.07.435-.041.881.088 1.302.038.169.075.339.098.505l.047.345.342-.065q.3-.053.604-.074a2.5 2.5 0 0 0 1.449-.427q.712-.672 1.27-1.478.43-.606.936-1.15 4.103-4.197 8.226-8.377a4538 4538 0 0 0 10.733-10.948 33 33 0 0 0 4.259-5.001c1.782-2.768 1.509-5.07-.906-7.699a365 365 0 0 1-7.431-8.355"/></svg>
